X:8310
T:Julia Clifford's Slide
M:12/8
L:1/8
R:slide
B:An Irish Tunebook: Part Two (Ossian)
K:Em
|:e3 ABd e2d efg|eAA ABd edB BAG
e2A ABd e2d efg|edBg2B d2B def:|
|:e2a aga aba aga|e2a aga efd efg
|1 e2a aga aba aga|edB g2G d2B def
:|2 aba gag fgf efe|d2B g2B d2B def:|
